X:168
%%etbk:tnset id:55,pos:4,rep:3x,ant:
%%etbk:tnset id:148,pos:3,rep:3x,ant:
%%etbk:wsite http://www.thesession.org/tunes/display/756
%%etbk:pldat 2016-06-23T19:18,2016-06-20T18:01,2016-06-18T15:49,2016-05-05T14:30,2016-05-03T17:19,2016-03-11T17:09,2016-03-10T18:29,2016-03-09T16:09,2016-03-08T16:33,2016-03-07T18:42,2016-02-23T17:07,2016-02-08T18:17,2015-11-04T16:10,2015-11-03T17:02,2015-11-01T15:59,2015-10-31T16:33,2015-10-29T18:21,2015-10-27T15:29,2015-10-24T14:20,2015-10-24T13:46,2015-10-20T16:57,2015-10-19T18:30,2015-10-08T18:12,2015-10-06T17:46,2015-10-05T19:28,2015-10-05T19:02,2015-10-01T18:14,2015-09-30T15:43,2015-09-29T15:57,2015-09-28T18:34,2015-08-30T16:19,2015-08-27T18:15,2015-08-24T19:05,2015-08-19T16:30,2015-06-26T17:21,2015-06-22T18:49,2015-05-28T18:12,2015-04-23T18:14,2015-03-13T19:03,2015-03-12T18:55,2015-03-10T17:02,2015-03-06T15:47,2015-02-16T19:19,2015-02-03T16:28,2015-01-27T16:39,2014-12-03T18:18,2014-11-05T18:25,2014-11-02T14:42,2014-10-30T18:16,2014-10-29T16:48,2014-10-28T16:47,2014-10-28T16:15,2014-10-27T18:06,2014-10-25T14:17,2014-10-24T18:45,2014-10-23T19:03,2014-10-22T19:29,2014-10-20T18:02,2014-10-19T15:38,2014-10-14T18:54,2014-10-13T18:30,2014-10-12T14:44,2014-10-11T13:38,2014-10-09T09:34,2014-10-07T15:01,2014-10-05T15:15,2014-10-03T15:22,2014-09-30T10:28,2014-09-27T10:45,2014-08-21T19:33,2014-08-20T18:52,2014-06-10T18:12,2014-03-05T18:14,2014-03-01T17:29,2014-02-27T18:42,2014-02-20T18:41,2014-01-22T15:29,2014-01-21T16:33,2014-01-20T18:12,2014-01-19T13:01,2014-01-18T14:49,2014-01-17T17:51,2014-01-15T15:44,2014-01-13T18:11,2014-01-12T13:26,2014-01-08T16:07,2014-01-07T15:31,2014-01-06T18:39,2013-12-29T12:18,2013-12-28T13:05,2013-12-27T16:41,2013-12-22T16:42,2013-12-17T16:22,2013-12-16T18:49,2013-10-30T16:42,2013-10-29T16:21,2013-10-29T16:16,2013-10-27T14:21,2013-10-23T19:09,2013-10-18T15:50,2013-10-18T15:25,2013-10-15T18:32,2013-10-13T16:23,2013-10-13T14:56,2013-10-09T15:23,2013-10-08T16:04,2013-10-05T15:04,2013-10-04T16:46
T: Jennie's Chickens
Z: Piano Box Version by Martin Fleischmann
H: Created 2013-02-19 /  Last Modified 2013-10-08
M: 4/4
L: 1/8
R: reel
K: Bmin
|: "bm"!4!f3f {g}!4!f!3!e!2!c!3!e | !4!f!3!e!4!f!5!a "f#m"!3!e!1!A!2!c!3!e | "bm"!4!f3f {g}!4!f!3!e!2!c!3!e | "f#m"!4!f2!5!a!4!f !3!e!1!A!2!c!3!e :|
"bm"!4!f!1!BBB !1!B2B!3!e | !4!f!1!B!2!B!1!B "f#m"!3!e!1!A!2!c!3!e | "bm"!4!f!1!BBB!1!B2B!3!e | "f#m"!4!f2!5!af !3!e!1!A!2!c!3!e |
"bm"!4!f!1!BBB !4!f!1!BBB | !4!f!1!B!2!B!1!B "f#m"!3!e!1!A!2!c!3!e | "bm"!4!f!1!BBB!1!B2B!3!e | "f#m"!4!f2!5!af !3!e!1!A!2!c!3!e |
|: "bm"!1!B2 !5!bB !4!aB!3!^gB | !1!B2!4!fB "f#m"!3!cB!1!A!3!c | "bm"!1!B2 !5!bB !4!aB!3!^gB |1 "f#m"!4!f2!5!af !3!e!1!A!2!c!3!e :|2 "f#m"!4!f2!5!af !3!e4 :|


